static/app-icons/light-theme/AlertNotification.svg

<svg xmlns="http://www.w3.org/2000/svg" viewBox="0 0 32 32"><defs><linearGradient id="a" x1="25.5" y1="19" x2="25.5" y2="9" gradientUnits="userSpaceOnUse"><stop offset="0" stop-opacity="0"/><stop offset=".729"/></linearGradient><linearGradient id="c" y1="32" x2="32" gradientUnits="userSpaceOnUse"><stop offset=".1" stop-color="#a56eff"/><stop offset=".9" stop-color="#0f62fe"/></linearGradient><mask id="b" x="0" y="0" width="32" height="32" maskUnits="userSpaceOnUse"><path d="M26 17.6V11h-2v7a.908.908 0 00.3.7l2.7 2.7V23H5v-1.6l2.7-2.7A.908.908 0 008 18v-5a8.024 8.024 0 018-8 7.923 7.923 0 014 1.088V3.8a9.744 9.744 0 00-3-.8V1h-2v2a10.146 10.146 0 00-9 10v4.6l-2.7 2.7a.908.908 0 00-.3.7v3a.945.945 0 001 1h7a5 5 0 0010 0h7a.945.945 0 001-1v-3a.908.908 0 00-.3-.7zM16 28a2.946 2.946 0 01-3-3h6a2.946 2.946 0 01-3 3z" fill="#f2f2f2"/><path fill="url(#a)" d="M22 9h7v10h-7z"/></mask></defs><g data-name="Layer 2"><g data-name="Light theme icons"><g mask="url(#b)"><path fill="url(#c)" d="M0 0h32v32H0z"/></g><circle cx="26" cy="8" r="4" fill="#001d6c"/></g></g></svg>

<svg xmlns="http://www.w3.org/2000/svg" xmlns:xlink="http://www.w3.org/1999/xlink" viewBox="0 0 32 32"><defs><style>.cls-1{fill:#f2f2f2;}.cls-2{fill:url(#linear-gradient);}.cls-3{mask:url(#mask);}.cls-4{fill:url(#linear-gradient-2);}.cls-5{fill:#001d6c;}</style><linearGradient id="linear-gradient" x1="25.5" y1="19" x2="25.5" y2="9" gradientUnits="userSpaceOnUse"><stop offset="0" stop-opacity="0"/><stop offset="0.729"/></linearGradient><mask id="mask" x="0" y="0" width="32" height="32" maskUnits="userSpaceOnUse"><path class="cls-1" d="M26,17.6V11H24v7a.908.908,0,0,0,.3.7L27,21.4V23H5V21.4l2.7-2.7A.908.908,0,0,0,8,18V13a8.024,8.024,0,0,1,8-8,7.923,7.923,0,0,1,4,1.088V3.8A9.744,9.744,0,0,0,17,3V1H15V3A10.146,10.146,0,0,0,6,13v4.6L3.3,20.3A.908.908,0,0,0,3,21v3a.945.945,0,0,0,1,1h7a5,5,0,0,0,10,0h7a.945.945,0,0,0,1-1V21a.908.908,0,0,0-.3-.7ZM16,28a2.946,2.946,0,0,1-3-3h6A2.946,2.946,0,0,1,16,28Z"/><rect class="cls-2" x="22" y="9" width="7" height="10"/></mask><linearGradient id="linear-gradient-2" y1="32" x2="32" gradientUnits="userSpaceOnUse"><stop offset="0.1" stop-color="#a56eff"/><stop offset="0.9" stop-color="#0f62fe"/></linearGradient></defs><g id="Layer_2" data-name="Layer 2"><g id="Light_theme_icons" data-name="Light theme icons"><g class="cls-3"><rect class="cls-4" width="32" height="32"/></g><circle class="cls-5" cx="26" cy="8" r="4"/></g></g></svg>
